src/images/github.svg

<svg width="30px" height="30px" viewBox="322 444 30 30" version="1.1" xmlns="http://www.w3.org/2000/svg" xmlns:xlink="http://www.w3.org/1999/xlink">
    <!-- Generator: Sketch 41.1 (35376) - http://www.bohemiancoding.com/sketch -->
    <desc>Created with Sketch.</desc>
    <defs></defs>
    <path d="M336.998619,444 C328.716597,444 322,450.715676 322,459.00046 C322,465.627736 326.297554,471.249455 332.258142,473.232941 C333.008625,473.371067 333.282114,472.907885 333.282114,472.510083 C333.282114,472.154639 333.269223,471.21078 333.261856,469.95936 C329.089536,470.865465 328.209215,467.948249 328.209215,467.948249 C327.526873,466.215231 326.543418,465.753891 326.543418,465.753891 C325.181497,464.823844 326.646551,464.84226 326.646551,464.84226 C328.152123,464.948157 328.944044,466.388348 328.944044,466.388348 C330.282022,468.680316 332.455201,468.018233 333.309739,467.634243 C333.446024,466.665521 333.833697,466.004359 334.261886,465.629577 C330.931213,465.251113 327.429264,463.96378 327.429264,458.215906 C327.429264,456.578655 328.013997,455.238835 328.973511,454.190921 C328.81881,453.811535 328.304061,452.285706 329.120845,450.221185 C329.120845,450.221185 330.379631,449.817858 333.245281,451.758986 C334.44145,451.425642 335.725099,451.259891 337.00046,451.253445 C338.274901,451.259891 339.557629,451.425642 340.75564,451.758986 C343.619448,449.817858 344.876393,450.221185 344.876393,450.221185 C345.695018,452.285706 345.180269,453.811535 345.026489,454.190921 C345.987845,455.238835 346.567973,456.578655 346.567973,458.215906 C346.567973,463.978514 343.060499,465.246508 339.719697,465.617606 C340.257466,466.080788 340.737223,466.996102 340.737223,468.395776 C340.737223,470.400442 340.718807,472.018355 340.718807,472.510083 C340.718807,472.911569 340.989533,473.378434 341.750146,473.232021 C347.70613,471.24393 352,465.625894 352,459.00046 C352,450.715676 345.283403,444 336.998619,444" id="Github" stroke="none" fill="#FFFFFF" fill-rule="evenodd"></path>
</svg>

<svg width="30" height="30" viewBox="322 444 30 30" xmlns="http://www.w3.org/2000/svg"><path d="M336.999 444c-8.282 0-14.999 6.716-14.999 15 0 6.628 4.298 12.25 10.258 14.233.75.138 1.024-.325 1.024-.723 0-.355-.013-1.3-.02-2.55-4.172.905-5.053-2.012-5.053-2.012-.682-1.733-1.666-2.194-1.666-2.194-1.362-.93.104-.912.104-.912 1.505.106 2.297 1.546 2.297 1.546 1.338 2.292 3.511 1.63 4.366 1.246.136-.968.524-1.63.952-2.004-3.33-.379-6.833-1.666-6.833-7.414 0-1.637.585-2.977 1.545-4.025-.155-.38-.67-1.905.147-3.97 0 0 1.259-.403 4.124 1.538 1.196-.333 2.48-.5 3.755-.506 1.275.007 2.558.173 3.756.506 2.863-1.941 4.12-1.538 4.12-1.538.819 2.065.304 3.59.15 3.97.962 1.048 1.542 2.388 1.542 4.025 0 5.763-3.508 7.03-6.848 7.402.537.463 1.017 1.378 1.017 2.778 0 2.004-.018 3.622-.018 4.114 0 .402.27.868 1.031.722C347.706 471.244 352 465.626 352 459c0-8.284-6.717-15-15.001-15" fill="#FFF" fill-rule="evenodd"/></svg>
